X:1
T:Old Maids of Galway -- Reel
R:reel
B:Ryan's Mammoth Collection
Z: Contributed by Ray Davies,  ray:davies99.freeserve.co.uk
M:C|
L:1/8
K:Edor
ve~B3  e2dB|A2GA dBgf|e~B3  e2dB|A2GA BGG2|
e~B3  e2dB|A2GA dBgf|e~B3  e2dB|A2GA BGG2H::
g2fg efde|g2bg gaaf|g2fg efdB|A2GA BGG2|
g2fg efde|g2bg faaf|gefd ecdB|A2GA BGG2:|
